svgs/light/repeat-1.svg

<svg xmlns="http://www.w3.org/2000/svg" viewBox="0 0 512 512"><!--! Font Awesome Pro 6.0.0-alpha3 by @fontawesome - https://fontawesome.com License - https://fontawesome.com/license (Commercial License) --><path d="M272 320c8.844 0 16-7.156 16-16v-96C288 199.2 280.8 192 272 192h-32C231.2 192 224 199.2 224 208S231.2 224 240 224H256v80C256 312.8 263.2 320 272 320zM176 112l143.1-.002L320 176c0 6.219 3.594 11.84 9.219 14.5C331.4 191.5 333.7 192 336 192c3.672 0 7.312-1.25 10.25-3.719l96-80C445.9 105.2 448 100.7 448 95.1s-2.109-9.253-5.75-12.28l-96-80c-4.781-4-11.45-4.812-17.03-2.219C323.6 4.148 320 9.773 320 15.99L319.1 80H176C78.95 80 0 158.1 0 256c0 8.844 7.156 16 16 16S32 264.8 32 256C32 176.6 96.59 112 176 112zM352 50.15l55 45.85L352 141.8V50.15zM496 240C487.2 240 480 247.2 480 256c0 79.41-64.59 144-144 144H192L192 336c0-6.219-3.594-11.84-9.219-14.5C180.6 320.5 178.3 320 176 320c-3.672 0-7.312 1.25-10.25 3.719l-96 80C66.11 406.8 64 411.3 64 416s2.109 9.254 5.75 12.29l96 80c4.781 4 11.45 4.812 17.03 2.219C188.4 507.9 192 502.2 192 496L192 432H336c97.05 0 176-78.97 176-176C512 247.2 504.8 240 496 240zM160 461.8L105 416L160 370.2V461.8z"/></svg>

<svg xmlns="http://www.w3.org/2000/svg" viewBox="0 0 512 512"><!-- Font Awesome Pro 6.0.0-alpha2 by @fontawesome - https://fontawesome.com License - https://fontawesome.com/license (Commercial License) --><path d="M272 320C280.844 320 288 312.844 288 304V208C288 199.156 280.844 192 272 192H240C231.156 192 224 199.156 224 208S231.156 224 240 224H256V304C256 312.844 263.156 320 272 320ZM176 112H320V176C320 182.219 323.594 187.844 329.219 190.5C331.375 191.5 333.688 192 336 192C339.672 192 343.312 190.75 346.25 188.281L442.25 108.277C445.891 105.246 448 100.746 448 95.996S445.891 86.746 442.25 83.715L346.25 3.711C341.469 -0.289 334.797 -1.102 329.219 1.492C323.594 4.148 320 9.773 320 15.992V80H176C78.953 80 0 158.969 0 256C0 264.844 7.156 272 16 272S32 264.844 32 256C32 176.594 96.594 112 176 112ZM352 50.148L407 95.996L352 141.844V50.148ZM496 240C487.156 240 480 247.156 480 256C480 335.406 415.406 400 336 400H192V336C192 329.781 188.406 324.156 182.781 321.5C180.625 320.5 178.312 320 176 320C172.328 320 168.688 321.25 165.75 323.719L69.75 403.719C66.109 406.75 64 411.25 64 416S66.109 425.254 69.75 428.285L165.75 508.289C170.531 512.289 177.203 513.102 182.781 510.508C188.406 507.852 192 502.227 192 496.008V432H336C433.047 432 512 353.031 512 256C512 247.156 504.844 240 496 240ZM160 461.848L105 416L160 370.156V461.848Z"/></svg>
